!!!OTL: 595. Gute Nacht! (Staendchen.)
!!!ARE: Europa, Mitteleuropa, Deutschland
!!!SCT: E0595
!!!TXL: @@DE
!!!YEM: Copyright 1995, estate of Helmut Schaffrath.
**kern	**text
*ICvox	*
*M4/4	*
*met(c)	*
*k[f#]	*
*G:	*
{8ddL	1._Gute
8ccJ	.
=1	=1
4b	Nacht,
8ddL	gute
8ccJ	.
4b	Nacht,
4dd	mein
=2	=2
8eeL	fei-
8ddJ	.
8ccL	-nes
8bJ	.
4cc}	Lieb,
{8ccL	gute
8bJ	.
=3	=3
4a	Nacht,
4a	ſchlaf
4.dd	wohl,
8cc	mein
=4	=4
2b	Kind!
4r}	.
{8ddL	1._Gute
8ccJ	.
=5	=5
4b	Nacht,
8ddL	gute
8ccJ	.
4b	Nacht,
4dd	mein
=6	=6
8eeL	fei-
8ddJ	.
8ccL	-nes
8bJ	.
4cc}	Lieb,
{8ccL	gute
8bJ	.
=7	=7
4a	Nacht,
4a	ſchlaf
4.dd	wohl,
8cc	mein
=8	=8
2b	Kind!
4r}	.
{8gL	daß
8bJ	.
=9	=9
4.dd	dich
8b	die
4g	En-
4gg	-gel
=10	=10
4.ee	hü-
8dd	-ten
4cc}	all',
{8ccL	die
8bJ	.
=11	=11
4.a	in
8g	dem
4f#	ſchö-
4ee	-nen
=12	=12
4.dd	Him-
8cc	-mel
4b}	ſind,
{8ddL	gute
8ccJ	.
=13	=13
4b	Nacht,
8ddL	gute
8ccJ	.
4b	Nacht,
4dd	mein
=14	=14
8eeL	fei-
8ddJ	.
8ccL	-nes
8bJ	.
4cc}	Lieb,
{8ccL	ſchlaf
8bJ	.
=15	=15
4a	wohl
4ee	von
4.dd	nach-
8cc	-ten
=16	=16
2b	lind.
4r}	.
==	==
!!!AGN: Liebes - Lied, Abend, Staendchen
!!!ONB: ESAC (Essen Associative Code) Database: ERK1
!!!AMT: simple quadruple
!!!AIN: vox
!!!EED: Helmut Schaffrath
!!!EEV: 1.0
!!!GTL: Liebeslieder [Neuere (aus dem 18. bis 19. Jahrh.) - Liebeslust]
!!!URL-scan: https://rosdok.uni-rostock.de/mcrviewer/recordIdentifier/rosdok_ppn745177662/iview2/phys_0419.iview2?x=-128.77276441889308&y=1932.0877223077696&scale=0.5870222003877485&rotation=0&layout=singlePageLayout
!!!ENC: Anna Maria Matuszewska
!!!EEV: 2024/11/12
*-	*-
